X: 3
T: The Famous Ballymote
R: reel
M: 4/4
L: 1/8
K: Dmix
||FDAD F~A3|cABG EFGE|FDAD F~A3|cAGE FD D2:|||FDFA d2 ed|cABG EFGE|1 FDFA d2 ed|cAGE FD D2:|2 FDFA df ed|cAGE FD D2||


Tune 390	Setting 23014

